X:1
T:Vivre ne puis content
T:Vivre ne puis content
T:Pierre Certon
C:Pierre Certon
%%score [ 1 [ 2 3 ] 4 ]
L:1/8
Q:1/4=98
M:2/2
K:F
V:1 treble nm="Superius" snm="S"
V:2 treble-8 nm="Tenor 1" snm="T 1"
V:3 treble-8 nm="Tenor 2" snm="T 2"
V:4 bass nm="Bassus" snm="B"
V:1
 G8 | B4 B4 | A8 | z2 A2 A2 A2 | B2 B2 cB AG | A2 B2 A2 G2- | G2 F2 G4 | z8 | z2 B2 B2 A2 | %9
w: Vi-|vre ne|puis|con- tent sans|ma mais- tres- * * *||* * se,||son doulx re-|
 B3 A/G/ F4 | z2 F2 G2 G2 | B2 c4 B2- | B2 A2 B4 | z4 B4- | B4 G4 | G4 A4 | z2 A2 B2 B2 | %17
w: gard _ _ _|qu'in- ces- sa-|ment re- gret-|* * te,|lan-|* guir|me faict|son a- mour|
 A2 G4 F2- | F2 E2 F4- | F4 z2 F2 | G4 A4 | D4 z2 A2 | A2 A2 G2 G2 | F3 G AF G2- | GFED E4 | D8 | %26
w: en tris- tes-|* * se,|_ du|quel el-|le'a co-|gnois- san- ce par-|faic- * * * *||te,|
 z4 z2 B2- | B2 A2 G4 | F4 z2 F2 | F2 F2 G2 G2 | F3 G A2 B2- | B2 A4 G2 | A4 z2 A2 | A2 A2 GF GA | %34
w: jo-|* ys- san-|c'est le|bien que je sou-|hai- * * *||te, pour|a- voir fruict _ _ _|
 B2 B2 A2 A2 | G2 A4 G2- | G2 F2 G4 | z2 G2 F2 D2 | A8 | z2 d2 d2 d2 | c2 c2 B3 A/G/ | %41
w: _ de l'a- mour|com- men- *|* * cé,|mais en chan-|tant|res- pont sur|ma re- ques- * *|
 F2 B2 c2 d2 | cB B4 A2 | B4 z4 |: B8 | A4 G4 | F8 | z2 D2 F2 F2 | G2 B2 A4 | G4 z2 F2 | %50
w: ||te.|Con-|ten- tez|vous,-|a- my, de|la pen- sé-|e, a-|
 F2 F2 G2 B2 | AG FE D2 B2- | B2 A4 G2- |"^#" G2 F2 G4- | G8 :| %55
w: my, de la pen-|sé- * * * * *||* * e.|_|
V:2
 d8- | d8 | f4 e4 | f4 z2 f2 | g2 g2 e2 f2- |"^b" f2 d2 e2 c2 | d4 z2 B2 | c2 d2 GA Bc | %8
w: Vi-||vre ne|puis con-|tent sans ma mais-|* tres- * *|se, son|doulx re- gard, _ _ _|
 d2 d2 e2 f2 | d4 z2 d2 | d2 d2 G2 G2 | F2 GA Bc de | f4 d4 | z4 f4- | f4 _e4 | d3 e f4 | %16
w: _ son doulx re-|gard qu'in-|ces- sa- ment re-|gret- * * * * * *|* te,|lan-|* guir|me _ faict|
 z2 f2 d2 e2 | f2 e2 d4 | c2 B2 c4 | d2 B2 c2 d2 | G2 d2 e2 f2 | B4 cBAG | F2 F2 G2 G2 | %23
w: son a- mour|en tris- tes-|* * se,|du quel el- le'a|co- gnois- san- *|ce, [co- * * *|gnois- san- ce] par-|
 A2 f4 e2- |"^#" ed d4 c2 | d4 f4 | e2 d3 cBA | G8 | A2 A2 A2 B2- | B2 A4 G2 | A2 F2 f2 g2 | %31
w: faic- * *||te, jo-|ys- san- * * *||c'est le bien que|_ je sou-|hai- * * *|
 e2 f2 d4 | z2 d2 f2 f2 | cB cd e4 | d2 g4 f2 |"^b" d2 f2 e2 c2 |"^b" d4 B2 e2 | d2 d2 B4 | %38
w: * * te,|pour a- voir|fruict _ _ _ _|_ de l'a-|mour com- men- *|* cé, mais|en chan- tant|
 z2 f2 e2 e2 | dc BA G2 g2- | g2 f2 g2 d2 |"^b" d2 f2 e2 f2- |"^b" f2 e2 f4 | d4 z4 |: f8 | f4 e4 | %46
w: res- pont sur|ma _ _ _ _ re-|* * ques- te,|[res- pont sur ma|_ re- ques-|te.]|Con-|ten- tez|
 d8 | z2 d2 d2 d2 | B2 G2 d3 c | BA Bc d4 | z2 d2 d2 d2 | f2 f2 (3g2 f2 d2 |"^b" f4 e2 c2 | %53
w: vous,|a- my, de|la pen- sé- *|* * * * e,|a- my, de|la pen- sé- * *||
 d4 d4- | d8 :| %55
w: * e.|_|
V:3
 G4 B4- | B2 AG B4 | c2 d4 c2 | d2 A2 d3 d | d2 d2 c4- | c2 B2 cB AG | A4 G4 | z2 F2 B4- | B4 c4 | %9
w: Vi- vre|_ _ _ ne|puis con- tent|sans ma mais- tres-|se, [sans ma|_ mais- tres- * * *|* se,]|son doulx|_ re-|
 B4 z2 B2 | B2 A2 c2 c2 |"^b" d2 e3 d cB | c4 B4 | z4 d4- | d4 B4 | B4 c2 A2 | d2 d2 B2 B2 | %17
w: gard qu'in-|ces- sa- ment re-|gret- * * * *|* te,|lan-|* guir|me faict son|a- mour en tris-|
 c4 F3 G | A2 B4 A2 | B3 A/G/ F4 | z2 B2 c2 d2- | d2 G2 z2 c2 | A2 d2 d2 c2 | d6 c2 | B4 A4 | D8 | %26
w: tes- * *||* * * se,|du quel el-|* le'a co-|gnois- san- ce par-|faic- *||te,|
 z2 B2 A2 GA | Bc d4 c2 | d4 z2 d2 | c2 A2 B2 c2 | d8 | c2 A2 B4 | A8 | z2 A2 c2 c2 | %34
w: jo- ys- san- *||c'est le|bien que je sou-|hai-||te,|pour a- voir|
 BA/G/ Bc d2 d2 | B2 c2 B2 AG | A4 G2 c2 | B2 G2 d3 c/B/ | A2 d4 c2 | d4 z2 B2 | c2 c2 d2 G2 | %41
w: fruict _ _ _ _ _ de|l'a- mour com- * *|men- cé, mais|en chan- tant _ _|_ res- *|pont, res-|pont sur ma re-|
 A2 F2 G2 B2 | A2 B2 c4 | B4 z4 |: d8 | c4 c4 | A2 D2 F2 F2 | G2 B2 A4 | G3 F/E/ D2 F2 | GF GA B4 | %50
w: ques- * * *||te.|Con-|ten- tez|vous, a- my, de|la pen- sé-|||
 A4 z2 d2 | d2 d2 B2 G2 | d3 c B3 A/G/ | A4 G4- | G8 :| %55
w: e, a-|my, de la pen-|sé- * * * *|* e.|_|
V:4
 G,8 | G,4 G,4 | F,3 E,/D,/ A,4 | D,4 z2 D,2 | G,2 G,2 C,2 F,2- |"^b" F,2 G,2 C,2 E,2 | %6
w: Vi-|vre ne|_ _ _ _|puis con-|tent sans ma mais-|* tres- * *|
"^b" D,4 z2 E,2 |"^b""^b" E,2 D,2 E,3 D,/C,/ | B,,4 z2 F,2 | G,2 G,2 B,3 A, | G,2 F,2 E,4 | %11
w: se, son|doulx re- gard, _ _|_ qu'in-|ces- sa- ment re-|gret- * *|
 D,2 C,2 G,4 | F,4 B,,4 | z4 B,4- | B,4 _E,4 | G,4 F,4 | z2 D,2 G,2 G,2 | F,2 C,2 D,3 E, | %18
w: |* te,|lan-|* guir|me faict|son a- mour|en tris- tes- *|
 F,2 G,2 F,4 | B,,4 z4 | z4 z2 F,2 | G,4 A,4 | D,E,F,D, E,4 | D,4 z4 | z8 | z2 B,4 A,2 | %26
w: |se,|du|quel el-||le'a||jo- ys-|
 G,4 F,2 G,2- | G,F,E,D, E,4 | D,2 D,2 D,2 B,,2 |"^b" F,4 E,4 | D,6 G,2 | A,2 F,2 G,4 | %32
w: san- * *||c'est le bien que|je sou-|hai- *||
 D,4 z2 D,2 | F,2 F,2 C,D, E,F, | G,4 z2 D,2 |"^b" G,2 F,2 G,2 E,2 |"^b" D,E, F,D, E,2 C,2 | %37
w: te, pour|a- voir fruict _ _ _|_ de|l'a- mour com- *|men- * * * * *|
 G,4 z2 G,2 | F,2 D,2 A,4 | z2 G,2 B,2 B,2 | A,2 A,2 G,3 F,/E,/ | D,2 D,2 C,2 B,,2 | F,2 G,2 F,4 | %43
w: cé, mais|en chan- tant|res- pont sur|ma re- ques- * *|te, [res- pont sue|ma re- ques-|
 B,,4 z4 |: B,,8 | F,4 C,4 | D,2 D,2 D,2 D,2 | B,,2 G,,2 D,4 | G,,2 G,2 F,2 D,2 |"^b" E,4 z2 D,2 | %50
w: te.]|Con-|ten tez|vous, a- my, de|la pen- sé-|e, [con ten tez|vous,] a-|
 D,2 D,2 B,,2 G,,2 | D,4 z2 G,2 |"^b" F,2 D,2 E,4 | D,4 G,,4- | G,,8 :| %55
w: my, de la pen-|sé' a-|my, de le|pen- sé'.|_|

